X:1
T:The Rest of the Day's Your Own
M:6/8
L:1/8
K:D
 F| A3/2 A/2 A3/2 A/2 d3/2 d/2| d3/2 d/2 E3/2 E/2 E3/2 E/2| B3 A B2|\
 e2 d2 c2| d4- d2| z| F| A3/2 A/2 A3/2 A/2 d3/2 d/2| d3/2 d/2 E3/2 E/2 E3/2 E/2|\
 B3 A B2| e2 d2 c2| d4- d2| z| d| c3/2 c/2 c3/2 c/2 c3/2 c/2| d3/2 ^A/2 c3/2 B/2 B3/2 ^A/2|\
 B3 c d3/2 F/2| ^E3/2 F/2 c3/2 =E/2 ^D3/2 E/2| B3/2 ^A/2 B3/2 c/2 =A3|\
 z|
M:6/8
 d2 B A2 z| d2 B A2 z| d2 B AGF| G2 F E2 z| d2 B A2 z| d2 B A2 z| ^G2 A BAG|\
 A2 B c2 z| d2 B A2 z| d2 B A2 z| d2 B AGF| G2 F E2 z| d2 B A2 z| d2 B A2 z|\
 E2 ^G Bed| c2 B A2 z| d2 B A2 z| d2 B A2 z| d2 B AGF| G2 F E2 z| d2 B A2 z|\
 d2 B A2 z| ^G2 A BAG| A2 B c2 z| d2 B A2 z| d2 B A2 z| d2 B A2 F|\
 E3- E z E| F^EF G2 G| A2 A B2 B| dBG F2 E| D3- D2||
